X: 39235
T: Tadhg And Biddy's
R: waltz
M: 3/4
K: Dmajor
A2|D2D2A2|D2D2F2|E3 F GF|E6|
E3 F GE|A3 G EC|D6|D4 A2:|
d4 d2|c4 B2|A4 d2|A4 d2|
e4 e2|e2 d2 e2|f2 af ef|d4 A2|
d4 d2|c4 B2|A4 d2|A4 F2|
E3 F GE|A3 G EC|D6|D4 A2:|

